X:1527
T:Devil's Dead,The. HSJJ.123
O:england
M:4/4
L:1/8
Q:200
S:HSJ Jackson,Wyresdale,Lancs.1823
R:Reel
A:Lancashire
H:1823
K:A
e|"something amiss?"cAec dBfd|cAec e/f/g ae|"try 1st bar here"cA c/d/ef2
e:|
|:g|afec dBBg|agae gfeg|afec dBgd|cA c/d/ef2e:|]


